X:220
T:Pincushion Polka
R:Polka
M:2/4
L:1/16
K:C
e2|efg2 gag2|c'2e2 g4|a2d2 f4|g2c2 e4|
efg2 gag2|c'2e2 g4|a2d2 f2B2|c2e2 c2:|
K:G
z2|d2d2 c'4|b2b2 g4|abc'2 d2f2|g2b2 d4|
d2d2 c'4|b2b2 g4|abc'2 d2g2|a2g2 g2:|
K:C
z2|efg2 gag2|c'2e2 g4|a2d2 f4|g2c2 e4|
efg2 gag2|c'2e2 g4|a2d2 f2B2|c2e2 c2:|
K:F
z2|C2F2 F2A2|BcBA GAB2|C2G2 G2AG|F2d2 c4|
C2F2 F2A2|BcBA GAB2|C2G2 G2AG|F2A2 F2:|
